X:1

T:Basket of Oysters, The

M:6/8

L:1/8

S:O'Farrell's Pocket Companion 1804-10

Z:Paul Kinder

K:G

(3def|gag gab|abg fga|gfg eag|fdB BAB|

gag gab|abg fga|gfe afd|e3 e2:|

|:g|dec BcA|GBd gfe|dec BcA|BGE E3|

dec BcA|GBd g2 a|bge afd|e3 e2:|

|:g/2a/2|bgg dgg|af/2g/2a/2f/2 dfa|gfg efg|fdB B2 g|

bgg dgg|af/2g/2a/2f/2 dfa|gfe afd|e3 e2:|

|:g|dBB GBB|dBB gBB|dBB GBA|BGE E2 e|

dec BcA|GBd g2 a|bc'b agf|e3 e2:||

                       


BASKET OF TURF (An Cliaban/Cliabh Móna).  "Bundle and Go [1]," “The Creel of Turf,” "The Disconsolate Buck,” "The Lass from Collegeland," "The Unfortunate Rake [1]," "The Wandering Harper," "The Wee, Wee Man,” “Winter Garden Quadrille." Irish, Double Jig. E Minor. Standard tuning. AABB (most versions): AABB’CC’DD’EE’ (Breathnach/CRÉ V). A turf basket was used to haul home peat for fuel. Some versions are set in the dorian mode, and it is sometimes played with the parts reversed from the order given in Breathnach’s CRÉ II (1976). In CRÉ V, Breathnach prints a five-part version, while fiddlers P.J. and Martin Hayes have a three part version they have recorded as “The Castle [2]” (corresponding roughly to Breathnach’s parts 1, 2 & 5). The song “The Wandering Harper” is set to this air. Holden (Collection of the most esteemed old Irish Melodies, Dublin, 1807) gives it as “The Unfortunate Rake.” The melody compares with “Winter Garden Quadrille” in O’Neill’s Waifs and Strays of Gaelic Melody (No. 97). “The Basket of Turf” was recorded in New York in the late 1920’s by accordion player Frank Quinn, from North Longford, and fiddler player Joe Maguire, from County Fermanagh. It was famously recorded by Sligo fiddler Michael Coleman in New York in 1924, the first of a pair of jigs under the title “Up Sligo.” Sources for notated versions: accordion player Bill Harte, 1968 (Dublin, Ireland) [Breathnach]; Frank McCollam (Ballycastle, County Antrim) [Mulvihill]; fiddler Con Cassidy (County Donegal) [Feldman & O’Doherty]. Breathnach (CRÉ II), 1976; No. 52, pg. 28. Breathnach (CRÉ V), 1999; No. 18, pg. 11. Feldman & O’Doherty (The Northern Fiddler), 1979; pg. 152 (appears as 1st “Untitled Jig”). Mulvihill (1st Collection), 1986; No. 12, pg. 67. O'Neill (Music of Ireland: 1850 Melodies), 1903/1979; No. 735, pg. 137. O'Neill (Dance Music of Ireland: 1001 Gems), 1907/1986; No. 32, pg. 22. Ryan’s Mammoth Collection, 1883; pgs. 83 & 89. Treoir, vol. 32, No. 3, 2000; pg. 19. Gael-Linn/Viva Voce CEFCD 161, “Michael Coleman 1891-1945: Ceoltóir Mórthioncaur na hAoise.”

